static/img/kroki/307380c415f99d1fdd7542920e111824.svg

<?xml version="1.0" encoding="us-ascii" standalone="no"?><svg xmlns="http://www.w3.org/2000/svg" xmlns:xlink="http://www.w3.org/1999/xlink" contentStyleType="text/css" height="352px" preserveAspectRatio="none" style="width:639px;height:352px;" version="1.1" viewBox="0 0 639 352" width="639px" zoomAndPan="magnify"><defs/><g><!--class kubernetes_endpoint--><g id="elem_kubernetes_endpoint"><rect codeLine="22" fill="#3D176E" height="39.7891" id="kubernetes_endpoint" rx="2.5" ry="2.5" style="stroke:#000D19;stroke-width:0.5;" width="219" x="289.5" y="106.79"/><ellipse cx="304.5" cy="126.6845" fill="#ADD1B2" rx="11" ry="11" style="stroke:#181818;stroke-width:1.0;"/><path d="M307.4688,132.3252 Q306.8906,132.622 306.25,132.7627 Q305.6094,132.9189 304.9063,132.9189 Q302.4063,132.9189 301.0781,131.2783 Q299.7656,129.622 299.7656,126.497 Q299.7656,123.372 301.0781,121.7158 Q302.4063,120.0595 304.9063,120.0595 Q305.6094,120.0595 306.25,120.2158 Q306.9063,120.372 307.4688,120.6689 L307.4688,123.3877 Q306.8438,122.8095 306.25,122.5439 Q305.6563,122.2627 305.0313,122.2627 Q303.6875,122.2627 303,123.3408 Q302.3125,124.4033 302.3125,126.497 Q302.3125,128.5908 303,129.6689 Q303.6875,130.7314 305.0313,130.7314 Q305.6563,130.7314 306.25,130.4658 Q306.8438,130.1845 307.4688,129.6064 L307.4688,132.3252 Z " fill="#000000"/><text fill="#D9B8FF" font-family="Helvetica" font-size="17" lengthAdjust="spacing" textLength="177" x="323.5" y="132.5698">kubernetes_endpoint</text></g><!--class kubernetes_endpoint_slice--><g id="elem_kubernetes_endpoint_slice"><rect codeLine="24" fill="#3D176E" height="39.7891" id="kubernetes_endpoint_slice" rx="2.5" ry="2.5" style="stroke:#000D19;stroke-width:0.5;" width="264" x="7" y="206.58"/><ellipse cx="22" cy="226.4745" fill="#ADD1B2" rx="11" ry="11" style="stroke:#181818;stroke-width:1.0;"/><path d="M24.9688,232.1152 Q24.3906,232.412 23.75,232.5527 Q23.1094,232.7089 22.4063,232.7089 Q19.9063,232.7089 18.5781,231.0683 Q17.2656,229.412 17.2656,226.287 Q17.2656,223.162 18.5781,221.5058 Q19.9063,219.8495 22.4063,219.8495 Q23.1094,219.8495 23.75,220.0058 Q24.4063,220.162 24.9688,220.4589 L24.9688,223.1777 Q24.3438,222.5995 23.75,222.3339 Q23.1563,222.0527 22.5313,222.0527 Q21.1875,222.0527 20.5,223.1308 Q19.8125,224.1933 19.8125,226.287 Q19.8125,228.3808 20.5,229.4589 Q21.1875,230.5214 22.5313,230.5214 Q23.1563,230.5214 23.75,230.2558 Q24.3438,229.9745 24.9688,229.3964 L24.9688,232.1152 Z " fill="#000000"/><text fill="#D9B8FF" font-family="Helvetica" font-size="17" lengthAdjust="spacing" textLength="222" x="41" y="232.3598">kubernetes_endpoint_slice</text></g><!--class kubernetes_namespace--><g id="elem_kubernetes_namespace"><rect codeLine="26" fill="#3D176E" height="39.7891" id="kubernetes_namespace" rx="2.5" ry="2.5" style="stroke:#000D19;stroke-width:0.5;" width="239" x="279.5" y="7"/><ellipse cx="294.5" cy="26.8945" fill="#ADD1B2" rx="11" ry="11" style="stroke:#181818;stroke-width:1.0;"/><path d="M297.4688,32.5352 Q296.8906,32.832 296.25,32.9727 Q295.6094,33.1289 294.9063,33.1289 Q292.4063,33.1289 291.0781,31.4883 Q289.7656,29.832 289.7656,26.707 Q289.7656,23.582 291.0781,21.9258 Q292.4063,20.2695 294.9063,20.2695 Q295.6094,20.2695 296.25,20.4258 Q296.9063,20.582 297.4688,20.8789 L297.4688,23.5977 Q296.8438,23.0195 296.25,22.7539 Q295.6563,22.4727 295.0313,22.4727 Q293.6875,22.4727 293,23.5508 Q292.3125,24.6133 292.3125,26.707 Q292.3125,28.8008 293,29.8789 Q293.6875,30.9414 295.0313,30.9414 Q295.6563,30.9414 296.25,30.6758 Q296.8438,30.3945 297.4688,29.8164 L297.4688,32.5352 Z " fill="#000000"/><text fill="#D9B8FF" font-family="Helvetica" font-size="17" lengthAdjust="spacing" textLength="197" x="313.5" y="32.7798">kubernetes_namespace</text></g><!--class kubernetes_node--><g id="elem_kubernetes_node"><rect codeLine="28" fill="#3D176E" height="39.7891" id="kubernetes_node" rx="2.5" ry="2.5" style="stroke:#000D19;stroke-width:0.5;" width="186" x="306" y="206.58"/><ellipse cx="321" cy="226.4745" fill="#ADD1B2" rx="11" ry="11" style="stroke:#181818;stroke-width:1.0;"/><path d="M323.9688,232.1152 Q323.3906,232.412 322.75,232.5527 Q322.1094,232.7089 321.4063,232.7089 Q318.9063,232.7089 317.5781,231.0683 Q316.2656,229.412 316.2656,226.287 Q316.2656,223.162 317.5781,221.5058 Q318.9063,219.8495 321.4063,219.8495 Q322.1094,219.8495 322.75,220.0058 Q323.4063,220.162 323.9688,220.4589 L323.9688,223.1777 Q323.3438,222.5995 322.75,222.3339 Q322.1563,222.0527 321.5313,222.0527 Q320.1875,222.0527 319.5,223.1308 Q318.8125,224.1933 318.8125,226.287 Q318.8125,228.3808 319.5,229.4589 Q320.1875,230.5214 321.5313,230.5214 Q322.1563,230.5214 322.75,230.2558 Q323.3438,229.9745 323.9688,229.3964 L323.9688,232.1152 Z " fill="#000000"/><text fill="#D9B8FF" font-family="Helvetica" font-size="17" lengthAdjust="spacing" textLength="144" x="340" y="232.3598">kubernetes_node</text></g><!--class kubernetes_pod--><g id="elem_kubernetes_pod"><rect codeLine="30" fill="#3D176E" height="39.7891" id="kubernetes_pod" rx="2.5" ry="2.5" style="stroke:#000D19;stroke-width:0.5;" width="175" x="457.5" y="306.37"/><ellipse cx="472.5" cy="326.2645" fill="#ADD1B2" rx="11" ry="11" style="stroke:#181818;stroke-width:1.0;"/><path d="M475.4688,331.9052 Q474.8906,332.202 474.25,332.3427 Q473.6094,332.4989 472.9063,332.4989 Q470.4063,332.4989 469.0781,330.8583 Q467.7656,329.202 467.7656,326.077 Q467.7656,322.952 469.0781,321.2958 Q470.4063,319.6395 472.9063,319.6395 Q473.6094,319.6395 474.25,319.7958 Q474.9063,319.952 475.4688,320.2489 L475.4688,322.9677 Q474.8438,322.3895 474.25,322.1239 Q473.6563,321.8427 473.0313,321.8427 Q471.6875,321.8427 471,322.9208 Q470.3125,323.9833 470.3125,326.077 Q470.3125,328.1708 471,329.2489 Q471.6875,330.3114 473.0313,330.3114 Q473.6563,330.3114 474.25,330.0458 Q474.8438,329.7645 475.4688,329.1864 L475.4688,331.9052 Z " fill="#000000"/><text fill="#D9B8FF" font-family="Helvetica" font-size="17" lengthAdjust="spacing" textLength="133" x="491.5" y="332.1498">kubernetes_pod</text></g><!--link kubernetes_endpoint to kubernetes_endpoint_slice--><g id="link_kubernetes_endpoint_kubernetes_endpoint_slice"><path codeLine="32" d="M347.63,147.01 C303.83,163.48 240.95,187.13 195.69,204.15 " fill="none" id="kubernetes_endpoint-to-kubernetes_endpoint_slice" style="stroke:#1A83AF;stroke-width:2.0;"/><polygon fill="#1A83AF" points="191.26,206.2,201.0935,206.749,195.9352,204.4272,198.257,199.2688,191.26,206.2" style="stroke:#1A83AF;stroke-width:2.0;"/></g><!--link kubernetes_endpoint to kubernetes_node--><g id="link_kubernetes_endpoint_kubernetes_node"><path codeLine="33" d="M399,147.01 C399,162.28 399,183.71 399,200.32 " fill="none" id="kubernetes_endpoint-to-kubernetes_node" style="stroke:#1A83AF;stroke-width:2.0;"/><polygon fill="#1A83AF" points="399,205.2,403,196.2,399,200.2,395,196.2,399,205.2" style="stroke:#1A83AF;stroke-width:2.0;"/></g><!--link kubernetes_endpoint to kubernetes_pod--><g id="link_kubernetes_endpoint_kubernetes_pod"><path codeLine="34" d="M437.91,147.07 C461.6,160.72 490.73,181.08 509,206.58 C529.2,234.78 538.23,274.48 542.15,300.05 " fill="none" id="kubernetes_endpoint-to-kubernetes_pod" style="stroke:#1A83AF;stroke-width:2.0;"/><polygon fill="#1A83AF" points="543,304.91,545.6755,295.4315,542.2869,299.9611,537.7573,296.5725,543,304.91" style="stroke:#1A83AF;stroke-width:2.0;"/></g><!--link kubernetes_namespace to kubernetes_endpoint--><g id="link_kubernetes_namespace_kubernetes_endpoint"><path codeLine="35" d="M399,47.22 C399,62.49 399,83.92 399,100.53 " fill="none" id="kubernetes_namespace-to-kubernetes_endpoint" style="stroke:#1A83AF;stroke-width:2.0;"/><polygon fill="#1A83AF" points="399,105.41,403,96.41,399,100.41,395,96.41,399,105.41" style="stroke:#1A83AF;stroke-width:2.0;"/></g><!--link kubernetes_namespace to kubernetes_endpoint_slice--><g id="link_kubernetes_namespace_kubernetes_endpoint_slice"><path codeLine="36" d="M364.26,47.29 C338.12,62.39 301.83,84.48 272,106.79 C231.47,137.11 188.45,177.12 162.66,202.08 " fill="none" id="kubernetes_namespace-to-kubernetes_endpoint_slice" style="stroke:#1A83AF;stroke-width:2.0;"/><polygon fill="#1A83AF" points="159.36,205.25,168.6015,201.8448,162.9452,201.7648,163.0252,196.1085,159.36,205.25" style="stroke:#1A83AF;stroke-width:2.0;"/></g><!--link kubernetes_namespace to kubernetes_pod--><g id="link_kubernetes_namespace_kubernetes_pod"><path codeLine="37" d="M449.45,47.19 C476.32,60.05 507.55,79.63 526,106.79 C566.35,166.2 557.56,256.67 550.13,300.18 " fill="none" id="kubernetes_namespace-to-kubernetes_pod" style="stroke:#1A83AF;stroke-width:2.0;"/><polygon fill="#1A83AF" points="549.1,305,554.61,296.8367,549.973,300.0768,546.7329,295.4398,549.1,305" style="stroke:#1A83AF;stroke-width:2.0;"/></g><!--link kubernetes_node to kubernetes_pod--><g id="link_kubernetes_node_kubernetes_pod"><path codeLine="38" d="M427.84,246.8 C451.84,262.87 486.03,285.77 511.29,302.69 " fill="none" id="kubernetes_node-to-kubernetes_pod" style="stroke:#1A83AF;stroke-width:2.0;"/><polygon fill="#1A83AF" points="515.22,305.99,509.9503,297.6695,511.0597,303.2165,505.5127,304.3259,515.22,305.99" style="stroke:#1A83AF;stroke-width:2.0;"/></g><!--SRC=[dP9DIyD048Rl_HKBFHSIYxQz2B5Gz5B4UXCfcynikoJP3RDJInN_kqchikQZeLxtVMRdcM6s6b1WNl11v9Z7I6xWKcqAIJ8N4P7TpsrcIGoLaceygOSBQxWNMCeSnJrcRyWwaNNYUQkJrA1puigBxcIIRiZk39o-PvB6bH4QzgXv9fsBc4d7EqPF1cRnLAawMVzqE8PmSeCDp18WVID1440ugoEzhSxE_Kkiz3kAq5_QqZ8sD1ijZjHPouhm91k3_kITZeyIG9kDkFRUdavEP93-lA-s4ko-efNCdD_6CH9QFXGuRqo5ioceIIlyq0KdrUP4kYiFrI2ZMwE1mch3ucFmsPskNQOJR6TCkO7oiZfZ2nr9OU4OjDcCNePXD1r7YzVHRRVGHQMLo4K5fT-WTSu-kVzLDKVghwqhLhi-mtu1]--></g></svg>

<svg xmlns="http://www.w3.org/2000/svg" width="639" height="352" preserveAspectRatio="none" style="width:639px;height:352px"><rect width="219" height="39.789" x="289.5" y="106.79" fill="#3D176E" rx="2.5" ry="2.5" style="stroke:#000d19;stroke-width:.5"/><circle cx="304.5" cy="126.684" r="11" fill="#ADD1B2" style="stroke:#181818;stroke-width:1"/><path d="M307.469 132.325q-.578.297-1.219.438-.64.156-1.344.156-2.5 0-3.828-1.64-1.312-1.657-1.312-4.782t1.312-4.781q1.328-1.656 3.828-1.656.703 0 1.344.156.656.156 1.219.453v2.719q-.625-.579-1.219-.844-.594-.281-1.219-.281-1.344 0-2.031 1.078-.688 1.062-.688 3.156 0 2.094.688 3.172.688 1.062 2.031 1.062.625 0 1.219-.265.594-.281 1.219-.86v2.72Z"/><text x="323.5" y="132.57" fill="#D9B8FF" font-family="Helvetica" font-size="17" textLength="177">kubernetes_endpoint</text><rect width="264" height="39.789" x="7" y="206.58" fill="#3D176E" rx="2.5" ry="2.5" style="stroke:#000d19;stroke-width:.5"/><circle cx="22" cy="226.475" r="11" fill="#ADD1B2" style="stroke:#181818;stroke-width:1"/><path d="M24.969 232.115q-.578.297-1.219.438-.64.156-1.344.156-2.5 0-3.828-1.64-1.312-1.657-1.312-4.782t1.312-4.781q1.328-1.656 3.828-1.656.703 0 1.344.156.656.156 1.219.453v2.719q-.625-.578-1.219-.844-.594-.281-1.219-.281-1.343 0-2.031 1.078-.688 1.062-.688 3.156 0 2.094.688 3.172.688 1.062 2.031 1.062.625 0 1.219-.265.594-.281 1.219-.86v2.72Z"/><text x="41" y="232.36" fill="#D9B8FF" font-family="Helvetica" font-size="17" textLength="222">kubernetes_endpoint_slice</text><rect width="239" height="39.789" x="279.5" y="7" fill="#3D176E" rx="2.5" ry="2.5" style="stroke:#000d19;stroke-width:.5"/><circle cx="294.5" cy="26.895" r="11" fill="#ADD1B2" style="stroke:#181818;stroke-width:1"/><path d="M297.469 32.535q-.578.297-1.219.438-.64.156-1.344.156-2.5 0-3.828-1.64-1.312-1.657-1.312-4.782t1.312-4.781q1.328-1.656 3.828-1.656.703 0 1.344.156.656.156 1.219.453v2.719q-.625-.578-1.219-.844-.594-.281-1.219-.281-1.344 0-2.031 1.078-.688 1.062-.688 3.156 0 2.094.688 3.172.688 1.062 2.031 1.062.625 0 1.219-.265.594-.281 1.219-.86v2.72Z"/><text x="313.5" y="32.78" fill="#D9B8FF" font-family="Helvetica" font-size="17" textLength="197">kubernetes_namespace</text><rect width="186" height="39.789" x="306" y="206.58" fill="#3D176E" rx="2.5" ry="2.5" style="stroke:#000d19;stroke-width:.5"/><circle cx="321" cy="226.475" r="11" fill="#ADD1B2" style="stroke:#181818;stroke-width:1"/><path d="M323.969 232.115q-.578.297-1.219.438-.64.156-1.344.156-2.5 0-3.828-1.64-1.312-1.657-1.312-4.782t1.312-4.781q1.328-1.656 3.828-1.656.703 0 1.344.156.656.156 1.219.453v2.719q-.625-.578-1.219-.844-.594-.281-1.219-.281-1.344 0-2.031 1.078-.688 1.062-.688 3.156 0 2.094.688 3.172.688 1.062 2.031 1.062.625 0 1.219-.265.594-.281 1.219-.86v2.72Z"/><text x="340" y="232.36" fill="#D9B8FF" font-family="Helvetica" font-size="17" textLength="144">kubernetes_node</text><rect width="175" height="39.789" x="457.5" y="306.37" fill="#3D176E" rx="2.5" ry="2.5" style="stroke:#000d19;stroke-width:.5"/><circle cx="472.5" cy="326.264" r="11" fill="#ADD1B2" style="stroke:#181818;stroke-width:1"/><path d="M475.469 331.905q-.578.297-1.219.438-.64.156-1.344.156-2.5 0-3.828-1.64-1.312-1.657-1.312-4.782t1.312-4.781q1.328-1.656 3.828-1.656.703 0 1.344.156.656.156 1.219.453v2.719q-.625-.579-1.219-.844-.594-.281-1.219-.281-1.344 0-2.031 1.078-.688 1.062-.688 3.156 0 2.094.688 3.172.688 1.062 2.031 1.062.625 0 1.219-.265.594-.281 1.219-.86v2.72Z"/><text x="491.5" y="332.15" fill="#D9B8FF" font-family="Helvetica" font-size="17" textLength="133">kubernetes_pod</text><path fill="none" d="M347.63 147.01c-43.8 16.47-106.68 40.12-151.94 57.14" style="stroke:#1a83af;stroke-width:2"/><path fill="#1A83AF" d="m191.26 206.2 9.834.549-5.159-2.322 2.322-5.158-6.997 6.931z" style="stroke:#1a83af;stroke-width:2"/><path fill="none" d="M399 147.01v53.31" style="stroke:#1a83af;stroke-width:2"/><path fill="#1A83AF" d="m399 205.2 4-9-4 4-4-4 4 9z" style="stroke:#1a83af;stroke-width:2"/><path fill="none" d="M437.91 147.07c23.69 13.65 52.82 34.01 71.09 59.51 20.2 28.2 29.23 67.9 33.15 93.47" style="stroke:#1a83af;stroke-width:2"/><path fill="#1A83AF" d="m543 304.91 2.676-9.478-3.39 4.53-4.529-3.39L543 304.91z" style="stroke:#1a83af;stroke-width:2"/><path fill="none" d="M399 47.22v53.31" style="stroke:#1a83af;stroke-width:2"/><path fill="#1A83AF" d="m399 105.41 4-9-4 4-4-4 4 9z" style="stroke:#1a83af;stroke-width:2"/><path fill="none" d="M364.26 47.29c-26.14 15.1-62.43 37.19-92.26 59.5-40.53 30.32-83.55 70.33-109.34 95.29" style="stroke:#1a83af;stroke-width:2"/><path fill="#1A83AF" d="m159.36 205.25 9.241-3.405-5.656-.08.08-5.656-3.665 9.141z" style="stroke:#1a83af;stroke-width:2"/><path fill="none" d="M449.45 47.19c26.87 12.86 58.1 32.44 76.55 59.6 40.35 59.41 31.56 149.88 24.13 193.39" style="stroke:#1a83af;stroke-width:2"/><path fill="#1A83AF" d="m549.1 305 5.51-8.163-4.637 3.24-3.24-4.637L549.1 305z" style="stroke:#1a83af;stroke-width:2"/><path fill="none" d="M427.84 246.8c24 16.07 58.19 38.97 83.45 55.89" style="stroke:#1a83af;stroke-width:2"/><path fill="#1A83AF" d="m515.22 305.99-5.27-8.32 1.11 5.546-5.547 1.11 9.707 1.664z" style="stroke:#1a83af;stroke-width:2"/></svg>
